images/arrow.svg

<svg height="8" viewBox="0 0 10 8" width="10" xmlns="http://www.w3.org/2000/svg"><path d="m29.6666667 27.9111532 2.3578437-2.4069655c.2231567-.2278058.5849653-.2278058.808122 0 .2231568.2278058.2231568.5971521 0 .8249579l-3.1865995 3.2529871c-.0735049.2402239-.3348744.4178673-.6460329.4178673s-.572528-.1776434-.6460328-.4178673l-3.1865996-3.2529871c-.2231568-.2278058-.2231568-.5971521 0-.8249579.2231567-.2278058.5849653-.2278058.808122 0l2.3578437 2.4069655v-7.3555976c0-.3068249.2984769-.5555556.6666667-.5555556s.6666667.2487307.6666667.5555556z" fill="#fff" transform="matrix(0 -1 1 0 -20 33)"/></svg>

<?xml version="1.0" encoding="UTF-8"?>
<svg width="10px" height="8px" viewBox="0 0 10 8" version="1.1" xmlns="http://www.w3.org/2000/svg" xmlns:xlink="http://www.w3.org/1999/xlink">
    <!-- Generator: Sketch 48.2 (47327) - http://www.bohemiancoding.com/sketch -->
    <title>Combined Shape</title>
    <desc>Created with Sketch.</desc>
    <defs></defs>
    <g id="Desktop-HD-Copy-25" stroke="none" stroke-width="1" fill="none" fill-rule="evenodd" transform="translate(-274.000000, -407.000000)">
        <g id="1-block" transform="translate(-13.000000, 0.000000)" fill="#FFFFFF" fill-rule="nonzero">
            <g id="Group-2" transform="translate(263.000000, 219.000000)">
                <g id="кнопка" transform="translate(0.000000, 167.000000)">
                    <path d="M29.6666667,27.9111532 L32.0245104,25.5041877 C32.2476671,25.2763819 32.6094757,25.2763819 32.8326324,25.5041877 C33.0557892,25.7319935 33.0557892,26.1013398 32.8326324,26.3291456 L29.6460329,29.5821327 C29.572528,29.8223566 29.3111585,30 29,30 C28.6888415,30 28.427472,29.8223566 28.3539672,29.5821327 L25.1673676,26.3291456 C24.9442108,26.1013398 24.9442108,25.7319935 25.1673676,25.5041877 C25.3905243,25.2763819 25.7523329,25.2763819 25.9754896,25.5041877 L28.3333333,27.9111532 L28.3333333,20.5555556 C28.3333333,20.2487307 28.6318102,20 29,20 C29.3681898,20 29.6666667,20.2487307 29.6666667,20.5555556 L29.6666667,27.9111532 Z" id="Combined-Shape" transform="translate(29.000000, 25.000000) rotate(-90.000000) translate(-29.000000, -25.000000) "></path>
                </g>
            </g>
        </g>
    </g>
</svg>
